packages/core/src/svgs/bxx.svg

<svg width="24" height="24" viewBox="0 0 24 24" fill="none" xmlns="http://www.w3.org/2000/svg">
<g clip-path="url(#clip0_31_7630)">
<path d="M0 0H24V24H0V0Z" fill="url(#paint0_linear_31_7630)"/>
<path fill-rule="evenodd" clip-rule="evenodd" d="M3 9H5.87571C6.0924 9 6.30695 9.04268 6.50714 9.1256C6.70733 9.20852 6.88922 9.33006 7.04244 9.48327C7.19566 9.63649 7.31719 9.81839 7.40012 10.0186C7.48304 10.2188 7.52571 10.4333 7.52571 10.65C7.52571 10.9523 7.40561 11.2423 7.19182 11.4561C6.97802 11.6699 6.68806 11.79 6.38571 11.79H6.33857C6.70383 11.7911 7.05374 11.937 7.31161 12.1957C7.56948 12.4544 7.71429 12.8047 7.71429 13.17C7.71429 13.4103 7.66695 13.6483 7.57499 13.8703C7.48302 14.0923 7.34822 14.2941 7.17829 14.464C7.00836 14.6339 6.80662 14.7687 6.5846 14.8607C6.36257 14.9527 6.1246 15 5.88429 15H3V9ZM4.28571 9.85714H5.57143C5.79876 9.85714 6.01677 9.94745 6.17752 10.1082C6.33827 10.2689 6.42857 10.487 6.42857 10.7143C6.42857 10.9416 6.33827 11.1596 6.17752 11.3204C6.01677 11.4811 5.79876 11.5714 5.57143 11.5714H4.28571V9.85714ZM4.28571 12.4286H5.57143C5.79876 12.4286 6.01677 12.5189 6.17752 12.6796C6.33827 12.8404 6.42857 13.0584 6.42857 13.2857C6.42857 13.513 6.33827 13.7311 6.17752 13.8918C6.01677 14.0526 5.79876 14.1429 5.57143 14.1429H4.28571V12.4286Z" fill="#F0F3FA"/>
<path d="M8.14307 9H9.8745L14.1431 15H12.4116L8.14307 9Z" fill="#F0F3FA"/>
<path d="M13.7144 9H11.9829L7.71436 15H9.44578L13.7144 9ZM15.0001 9H16.7315L21.0001 15H19.2686L15.0001 9Z" fill="#F0F3FA"/>
<path d="M20.5713 9H18.8399L14.5713 15H16.3027L20.5713 9Z" fill="#F0F3FA"/>
</g>
<defs>
<linearGradient id="paint0_linear_31_7630" x1="24" y1="11.3571" x2="-1.233e-06" y2="11.1429" gradientUnits="userSpaceOnUse">
<stop stop-color="#59B5F6"/>
<stop offset="1" stop-color="#1648C7"/>
</linearGradient>
<clipPath id="clip0_31_7630">
<rect width="24" height="24" fill="white"/>
</clipPath>
</defs>
</svg>

<svg xmlns="http://www.w3.org/2000/svg" width="24" height="24" fill="none" viewBox="0 0 24 24"><g clip-path="url(#a)"><path fill="url(#b)" d="M0 0h24v24H0z"/><path fill="#F0F3FA" fill-rule="evenodd" d="M3 9h2.876a1.65 1.65 0 0 1 1.65 1.65 1.14 1.14 0 0 1-1.14 1.14h-.047a1.38 1.38 0 0 1 1.375 1.38A1.83 1.83 0 0 1 5.884 15H3zm1.286.857H5.57a.857.857 0 0 1 0 1.714H4.286zm0 2.572H5.57a.857.857 0 0 1 0 1.714H4.286z" clip-rule="evenodd"/><path fill="#F0F3FA" d="M8.143 9h1.731l4.27 6h-1.732z"/><path fill="#F0F3FA" d="M13.714 9h-1.731l-4.269 6h1.732zM15 9h1.732L21 15H19.27z"/><path fill="#F0F3FA" d="M20.571 9H18.84l-4.269 6h1.732z"/></g><defs><linearGradient id="b" x1="24" x2="0" y1="11.357" y2="11.143" gradientUnits="userSpaceOnUse"><stop stop-color="#59B5F6"/><stop offset="1" stop-color="#1648C7"/></linearGradient><clipPath id="a"><path fill="#fff" d="M0 0h24v24H0z"/></clipPath></defs></svg>
